X:8
T:BYSKLKN- The Boys of Kilkenny
S:from Michael Kelly's single sheet issue
N:last 2 1/6 measures slightly altered after 1st verse
Q:1/4=120
L:1/8
M:6/8
K:Bb
f3/4 e/4|d3/2 c/ B G F F|G B B B2 B/ e/|e3/2 d/ c e d B|\
f3/2d/ d/ B/ c2 e|e3/2 d/ c e3/2 c/ B|f3/2 d/ B/ d/ .c2 B/ B/|\
d3/2 c/ B B G F|G B B .e2 f3/4 d/4|d3/2 c/ B B G F|G B B B2|]

